!!!COM: Haydn, Franz Joseph
!!!OTL: String Quartet in D Major
!!!OPS: Opus 76
!!!ONM: No. 5
!!!OMD: Finale: Presto
!!!OMV: 4
!!!SCT: H III:79
!!!SCA: Thematisch-bibliographisches Werkevererzeichnis (A. van Hoboken)
!!!YOR: Trautwein Edition
!!!ENC: Frances Bennion
!!!CDT: 1732/3/31/-1809/5/31/
!!!CNT: Oesterreich
!!!YEC: Copyright (c) 1994, 2000 Center for Computer Assisted Research in the Humanities
!!!YEM: Rights to all derivative editions reserved.
!!!YEM: Refer to licensing agreement for further details.
!!!YEN: United States of America
**kern	**kern	**kern	**kern
*k[f#c#]	*k[f#c#]	*k[f#c#]	*k[f#c#]
*D:	*D:	*D:	*D:
*clefF4	*clefC3	*clefF	*clefF
*M2/4	*M2/4	*M2/4	*M2/4
4.r	4.r	4.r	4.r
8A	8g	8ee	8ccc#
=1	=1	=1	=1
4D	4f#	4ff#	4ddd
4r	4r	4r	4r
=2	=2	=2	=2
4.r	4.r	4.r	4.r
8A	8g	8ee	8ccc#
=3	=3	=3	=3
4D	4f#	4ff#	4ddd
4r	4r	4r	4r
=4	=4	=4	=4
4.r	4.r	4.r	4.r
8A	8g	8ee	8ccc#
=5	=5	=5	=5
8D	8f#	8ff#	8ddd
8A	8g	8ee	8ccc#
8D	8f#	8ff#	8ddd
8A	8g	8ee	8ccc#
=6	=6	=6	=6
4D	4f#	4ff#	4ddd
4r	8r	8r	4r
.	8d	8a	.
=7	=7	=7	=7
2r	8d	8a	2r
.	8d	8a	.
.	8d	8a	.
.	8d	8a	.
=8	=8	=8	=8
2r	8d	8a	4.r
.	8d	8a	.
.	8d	8a	.
.	8d	8a	16aa
.	.	.	16gg
=9	=9	=9	=9
2r	8d	8a	8ff#
.	8d	8a	16ff#
.	.	.	16ee
.	8d	8a	8dd
.	8d	8a	8ee
=10	=10	=10	=10
2r	8d	8a	16ff#
.	.	.	16gg
.	8d	8a	16ff#
.	.	.	16ee
.	8d	8a	8dd
.	8d	8a	16aa
.	.	.	16gg
=11	=11	=11	=11
2r	8d	8a	8ff#
.	8d	8a	16ff#
.	.	.	16ee
.	8d	8a	8dd
.	8d	8a	8ee
=12	=12	=12	=12
4.r	8d	8a	4ff#
.	8d	8a	.
.	8d	8a	8dd
16A	8d	8a	8r
16G	.	.	.
=13	=13	=13	=13
8F#	8d	8a	2r
16F#	8d	8a	.
16E	.	.	.
8D	8d	8a	.
8E	8d	8a	.
=14	=14	=14	=14
16F#	8d	8a	2r
16G	.	.	.
16F#	8d	8a	.
16E	.	.	.
8D	8d	8a	.
16A	8d	8a	.
16G	.	.	.
=15	=15	=15	=15
8F#	8d	8a	2r
16F#	8d	8a	.
16E	.	.	.
8D	8d	8a	.
8E	8d	8a	.
=16	=16	=16	=16
4F#	8d	8a	4.r
.	8d	8a	.
8D	8d	8a	.
8A	8g	8ee	8ccc#
=17	=17	=17	=17
4D	4f#	4ff#	4ddd
8r	8r	8r	8r
8A	8g	8ee	8ccc#
=18	=18	=18	=18
4D	4f#	4ff#	4ddd
8r	8r	8r	8r
8A	8g	8ee	8ccc#
=19	=19	=19	=19
8D	8f#	8ff#	8ddd
8A	8g	8ee	8ccc#
8D	8f#	8ff#	8ddd
8A	8g	8ee	8ccc#
=20	=20	=20	=20
4D	4f#	4ff#	4ddd
8r	8r	8r	8r
8F#	8e	8cc#	8aa#
=21	=21	=21	=21
4BB	4d	4dd	4bb
8r	8r	8r	8r
8F#	8e	8cc#	8aa#
=22	=22	=22	=22
4BB	4d	4dd	4bb
8r	8r	8r	8r
8E	8d	8b	8gg#
=23	=23	=23	=23
8AA	8c#	8cc#	8aa
8E	8d	8b	8gg#
8AA	8c#	8cc#	8aa
8E	8d	8b	8gg#
=24	=24	=24	=24
4AA	4c#	4cc#	4aa
4r	8r	8r	4r
.	8A	8e	.
=25	=25	=25	=25
2r	8A	8e	2r
.	8A	8e	.
.	8A	8e	.
.	8A	8e	.
=26	=26	=26	=26
2r	8A	8e	4.r
.	8A	8e	.
.	8A	8e	.
.	8A	8e	16ee
.	.	.	16dd
=27	=27	=27	=27
2r	8A	8e	8cc#
.	8A	8e	16cc#
.	.	.	16b
.	8A	8e	8a
.	8A	8e	8b
=28	=28	=28	=28
2r	8A	8e	16cc#
.	.	.	16dd
.	8A	8e	16cc#
.	.	.	16b
.	8A	8e	8a
.	8A	8e	16ee
.	.	.	16dd
=29	=29	=29	=29
2r	8A	8e	8cc#
.	8A	8e	16cc#
.	.	.	16b
.	8A	8e	8a
.	8A	8e	8b
=30	=30	=30	=30
4.r	8A	8e	4cc#
.	8A	8e	.
.	8A	8e	8a
16E	8A	8e	8r
16D	.	.	.
=31	=31	=31	=31
8C#	8A	8e	2r
16C#	8A	8e	.
16BB	.	.	.
8AA	8A	8e	.
8BB	8A	8e	.
=32	=32	=32	=32
16C#	8A	8e	2r
16D	.	.	.
16C#	8A	8e	.
16BB	.	.	.
8AA	8A	8e	.
16E	8A	8e	.
16D	.	.	.
=33	=33	=33	=33
8C#	8A	8e	2r
16C#	8A	8e	.
16BB	.	.	.
8AA	8A	8e	.
8BB	8A	8e	.
=34	=34	=34	=34
4C#	8A	8e	4.r
.	8A	8e	.
8AA	8A	8e	.
8E	8B	8dd	8gg#
=35	=35	=35	=35
8AA	8c#	8cc#	8aa
8E	8B	8dd	8gg#
8AA	8c#	8cc#	8aa
8E	8B	8dd	8gg#
=36	=36	=36	=36
4AA	4c#	4cc#	4aa
8r	8r	8r	8r
8D	8c	8a	8ff#
=37	=37	=37	=37
8GG	8B	8b	8gg
8D	8c	8a	8ff#
8GG	8B	8b	8gg
8D	8c	8a	8ff#
=38	=38	=38	=38
4GG	4B	4b	4gg
4r	8r	8r	8r
.	8f#	8a	8dd#
=39	=39	=39	=39
2r	8g	8b	8ee
.	8a	8cc	8dd#
.	8g	8b	8ee
.	8d#	8b	8ff#
=40	=40	=40	=40
2r	8e	4.b	8gg
.	8d#	.	8ff#
.	8e	.	8gg
.	8g	8a	8cc#
=41	=41	=41	=41
2r	8f#	8a	8dd
.	8g	8b-	8cc#
.	8f#	8a	8dd
.	8c#	8a	8ee
=42	=42	=42	=42
4.r	8d	4.a	8ff#
.	8c#	.	8ee
.	8d	.	8ff#
8e	8g	8cc#	8aa#
=43	=43	=43	=43
8d	8f#	8dd	8bb
8e	8g	8cc#	8aa#
8d	8f#	8dd	8bb
8A#	8ee	8gg	8ccc#
=44	=44	=44	=44
8B	8dd	8ff#	8ddd
8A#	8ee	8gg	8ccc#
8B	8dd	8ff#	8ddd
8c#	8cc#	8ee	8aa#
=45	=45	=45	=45
8d	8b	8ff#	8bb
8c#	8ee	8gg	8aa#
8d	8dd	8ff#	8bb
8d#	8b	8ff#	8aa
=46	=46	=46	=46
8e	8b	4ee	4gg#
8e	8b	.	.
8e	8b	4r	4r
8e	8b	.	.
=47	=47	=47	=47
8e	8b	2r	2r
8e	8b	.	.
8e	8b	.	.
8e	8b	.	.
=48	=48	=48	=48
8e	8b	2r	2r
8e	8b	.	.
8e	8b	.	.
8e	8b	.	.
=49	=49	=49	=49
8e	8b	2r	2r
8e	8b	.	.
8e	8b	.	.
8e	8b	.	.
=50	=50	=50	=50
8e	8b	8cc#	8gg
8e	8b	8cc#	8gg
8e	8b	8cc#	8gg
8e	8b	8cc#	8gg
=51	=51	=51	=51
8e	8b	8cc#	8gg
8e	8b	8cc#	8gg
8e	8b	8cc#	8gg
8e	8b	8cc#	8gg
=52	=52	=52	=52
8e	8a#	8cc# 8f#	8ff#
8e	8a#	8cc# 8f#	16ff#
.	.	.	16gg#
8e	8a#	8cc# 8f#	8aa#
8e	8a#	8cc# 8f#	16aa#
.	.	.	16bb
=53	=53	=53	=53
8e	8a#	8cc# 8f#	8ccc#
8e	8a#	8cc# 8f#	16ccc#
.	.	.	16ddd
8e	8a#	8cc# 8f#	8eee
8e	8cc#	8cc# 8f#	8aa#
=54	=54	=54	=54
8d	8f#	8b 8f#	8bb
8d	8f#	8b 8f#	16bb
.	.	.	16ccc#
8d	8f#	8b 8f#	8ddd
8d	8f#	8b 8f#	16ddd
.	.	.	16eee
=55	=55	=55	=55
8d	8B	8b 8f#	8fff#
8d	8B	8b 8f#	16fff#
.	.	.	16eee
8d	8B	8b 8f#	16ddd
.	.	.	16ccc#
8d	8B	8b 8f#	16bb
.	.	.	16aa
=56	=56	=56	=56
8d	8e	8e 8b	8gg#
8d	8g#	8b 8e	16ee
.	.	.	16ff#
8d	8g#	8b 8e	8gg#
8d	8g#	8e 8b	16gg#
.	.	.	16aa
=57	=57	=57	=57
8d	8g#	8b 8e	8bb
8d	8g#	8b 8e	16bb
.	.	.	16ccc#
8d	8g#	8b 8e	8ddd
8d	8b	8b 8e	8gg#
=58	=58	=58	=58
8c#	8e	8a 8e	8aa
8c#	8e	8a 8e	16aa
.	.	.	16bb
8c#	8e	8e 8a	8ccc#
8c#	8e	8a 8e	16ccc#
.	.	.	16ddd
=59	=59	=59	=59
8c#	8A	8a 8e	8eee
8c#	8A	8a 8e	16eee
.	.	.	16ddd
8c#	8A	8a 8e	16ccc#
.	.	.	16bb
8c#	8A	8a 8e	16aa
.	.	.	16gg#
=60	=60	=60	=60
4d	4d	4a 4f#	8ff#
.	.	.	16aa
.	.	.	16gg#
4r	4r	4r	16ff#
.	.	.	16ee
.	.	.	16dd
.	.	.	16cc#
=61	=61	=61	=61
4D	4d	4f#	8b
.	.	.	16ff#
.	.	.	16ee
4r	4r	4r	16dd
.	.	.	16cc#
.	.	.	16b
.	.	.	16a
=62	=62	=62	=62
4D	4B	4e	8g#
.	.	.	16ff#
.	.	.	16ee
4r	4r	4r	16dd
.	.	.	16cc#
.	.	.	16b
.	.	.	16a
=63	=63	=63	=63
4D	4e	4B	8g#
.	.	.	16b
.	.	.	16a
8r	8r	8r	16g#
.	.	.	16f#
8GG#	8E	8B	16e
.	.	.	16d
=64	=64	=64	=64
8AA	8E	8c#	8c#
16AA	16A	16A	16A
16BB	16B	16B	16B
8C#	8c#	8c#	8c#
16AA	16A	16A	16A
16BB	16B	16B	16B
=65	=65	=65	=65
8C#	8c#	8c#	8c#
16BB	16B	16B	16B
16C#	16c#	16c#	16c#
8D	8d	8d	8d
16C#	16c#	16c#	16c#
16D	16d	16d	16d
=66	=66	=66	=66
8E	8e	8e	8e
16D	16d	16d	16d
16E	16e	16e	16e
8F#	8f#	8f#	8f#
16D	16d	16d	16d
16E	16e	16e	16e
=67	=67	=67	=67
8F#	8f#	8f#	8f#
16E	16e	16e	16e
16F#	16f#	16f#	16f#
8G#	8g#	8g#	8g#
16F#	16f#	16f#	16f#
16G#	16g#	16g#	16g#
=68	=68	=68	=68
8A	8a	8a	8a
16F#	16f#	16f#	16f#
16G#	16g#	16g#	16g#
8A	8a	8a	8a
16F#	16f#	16f#	16f#
16G#	16g#	16g#	16g#
=69	=69	=69	=69
8A	8a	8a	8a
16G#	16g#	16g#	16g#
16A	16a	16a	16a
8B	8b	8b	8b
16A	16a	16a	16a
16B	16b	16b	16b
=70	=70	=70	=70
2c	2cc	2cc	2cc
=71	=71	=71	=71
2A	2a	2a	2a
=72	=72	=72	=72
[2D	[2f [2B-	[2b-	2ff
=73	=73	=73	=73
4D]	4f] 4B-]	4b-]	4dd
8r	8r	8r	8r
8D	8f	8d	8b-
=74	=74	=74	=74
4E	4e	4c	4a
8r	8r	8r	8r
8E	8e	8c	8a
=75	=75	=75	=75
4EE	4d	4B	4g#
8r	8r	8r	8r
8EE	8d	8B	8g#
=76	=76	=76	=76
4AA	4c#	4A	8a
.	.	.	16A
.	.	.	16B
4r	4r	8r	8c#
.	.	16A	16c#
.	.	16B	16d
=77	=77	=77	=77
4.r	2r	8c#	8e
.	.	8c#	8e
.	.	8B	8d
8AA	.	8A	8c#
=78	=78	=78	=78
4E	2r	4G#	8B
.	.	.	16B
.	.	.	16c#
4r	.	8r	8d
.	.	16B	16d
.	.	16c#	16e
=79	=79	=79	=79
4.r	2r	8d	8f#
.	.	8d	8f#
.	.	8c#	8e
8E	.	8B	8d
=80	=80	=80	=80
4A	2r	4A	8c#
.	.	.	16a
.	.	.	16b
4r	.	8r	8cc#
.	.	16a	16cc#
.	.	16b	16dd
=81	=81	=81	=81
2r	2r	8cc#	8ee
.	.	8cc#	8ee
.	.	8b	8dd
.	.	8a	8cc#
=82	=82	=82	=82
4.r	2r	8e	8b
.	.	8e	8b
.	.	8e	8b
16EE	.	8e	8b
16FF#	.	.	.
=83	=83	=83	=83
8GG#	2r	8e	8b
16GG#	.	8e	8b
16AA	.	.	.
8BB	.	8e	8b
16BB	.	8e	8b
16C#	.	.	.
=84	=84	=84	=84
4D	2r	8e	8b
.	.	8e	8b
8BB	.	8e	8b
16GG#	.	8e	8b
16AA	.	.	.
=85	=85	=85	=85
8BB	2r	8e	8b
16BB	.	8e	8b
16C#	.	.	.
8D	.	8e	8b
16D	.	8e	8b
16E	.	.	.
=86	=86	=86	=86
2F#	2r	8d#	8b
.	.	8d#	8b
.	.	8d#	8b
.	.	8d#	8b
=87	=87	=87	=87
2G#	8e	8d	8b
.	8e	8d	8b
.	8e	8d	8b
.	8e	8d	8b
=88	=88	=88	=88
8A	8e	8c#	8a
8A	8r	8r	8r
8F#	8a	8a	8cc#
8F#	8r	8r	8r
=89	=89	=89	=89
8D	8f#	8b	8dd
8D	8r	8r	8r
8E	8d	8g#	8b
8E	8r	8r	8r
=90	=90	=90	=90
4AA	4c#	8a	4a
.	.	16A	.
.	.	16B	.
4r	8r	8c#	4r
.	16A	16c#	.
.	16B	16d	.
=91	=91	=91	=91
4.r	8c#	8e	2r
.	8c#	8e	.
.	8B	8d	.
8AA	8A	8c#	.
=92	=92	=92	=92
4EE	4G#	8B	2r
.	.	16B	.
.	.	16c#	.
4r	8r	8d	.
.	16B	16d	.
.	16c#	16e	.
=93	=93	=93	=93
4.r	8d	8f#	2r
.	8d	8f#	.
.	8c#	8e	.
8EE	8B	8d	.
=94	=94	=94	=94
4AA	4A	8c#	2r
.	.	16a	.
.	.	16b	.
4r	8r	8cc#	.
.	16a	16cc#	.
.	16b	16dd	.
=95	=95	=95	=95
4r	8cc#	8ee	2r
.	8cc#	8ee	.
4A	8b	8dd	.
.	8a	8cc#	.
=96	=96	=96	=96
8e	4g#	8b	4.r
8e	.	8b	.
8e	4r	8b	.
8e	.	8b	16ee
.	.	.	16ff#
=97	=97	=97	=97
8e	2r	8b	8gg#
8e	.	8b	16gg#
.	.	.	16aa
8e	.	8b	8bb
8e	.	8b	16bb
.	.	.	16ccc#
=98	=98	=98	=98
8e	2r	8b	4ddd
8e	.	8b	.
8e	.	8b	8bb
8e	.	8b	16gg#
.	.	.	16aa
=99	=99	=99	=99
8e	2r	8b	8bb
8e	.	8b	16bb
.	.	.	16ccc#
8e	.	8b	8ddd
8e	.	8b	16ddd
.	.	.	16eee
=100	=100	=100	=100
8d#	2r	8b	2fff#
8d#	.	8b	.
8d#	.	8b	.
8d#	.	8b	.
=101	=101	=101	=101
8d	8e	8b	2ggg#
8d	8e	8b	.
8d	8e	8b	.
8d	8e	8b	.
=102	=102	=102	=102
8c#	8e	8a	16aaa
.	.	.	16ggg#
8c#	8e	8a	16fff#
.	.	.	16eee
8c#	8e	8a	16ddd
.	.	.	16ccc#
8c#	8e	8a	16bb
.	.	.	16aa
=103	=103	=103	=103
8d	8e	8g#	16bb
.	.	.	16aa
8d	8e	16g#	16bb
.	.	16a	16ccc#
8d	8e	16b	16ddd
.	.	16cc#	16eee
8d	8e	16dd	16fff#
.	.	16b	16ggg#
=104	=104	=104	=104
8c#	8e	8a	16aaa
.	.	.	16ggg#
8c#	8e	8a	16fff#
.	.	.	16eee
8c#	8e	8a	16ddd
.	.	.	16ccc#
8c#	8e	8a	16bb
.	.	.	16aa
=105	=105	=105	=105
8d	8e	16g#	16bb
.	.	16f#	16aa
8d	8e	16g#	16bb
.	.	16a	16ccc#
8d	8e	16b	16ddd
.	.	16cc#	16eee
8d	8e	16dd	16fff#
.	.	16b	16ggg#
=106	=106	=106	=106
8c#	8e	8a	16aaa
.	.	.	16ggg#
8c#	8e	8a	16fff#
.	.	.	16eee
8c#	8e	8a	16ddd
.	.	.	16ccc#
8c#	8e	8a	16bb
.	.	.	16aa
=107	=107	=107	=107
8d	8e	16g#	16bb
.	.	16f#	16aa
8d	8e	16g#	16bb
.	.	16a	16ccc#
8d	8e	16b	16ddd
.	.	16cc#	16eee
8d	8e	16dd	16fff#
.	.	16b	16ggg#
=108	=108	=108	=108
8c#	8e	8a	8aaa
8r	8r	8r	8r
8G#	8e	8ee	8bbb
8r	8r	8r	8r
=109	=109	=109	=109
8A	8a	8ee	8cccc#
8r	8r	8r	8r
8F#	8f#	8aa	8dddd
8r	8r	8r	8r
=110	=110	=110	=110
4C#	4e	4aa	4eeee
4r	4r	4r	4r
=111	=111	=111	=111
2r	2r	2r	2r
=112	=112	=112	=112
[2D	[2A	16f#	16ff#
.	.	16g#	16gg#
.	.	16f#	16ff#
.	.	16e#	16ee#
.	.	16f#	16ff#
.	.	16g#	16gg#
.	.	16f#	16ff#
.	.	16e#	16ee#
=113	=113	=113	=113
2D]	2A_	8f#	8ff#
.	.	8g#	8gg#
.	.	8a	8aa
.	.	8dd	8ff#
=114	=114	=114	=114
2E	2A]	4cc#	8ee
.	.	.	8aa
.	.	8a	8cc#
.	.	8cc#	8ee
=115	=115	=115	=115
2EE	2e	8cc#	8ee
.	.	8b	8dd
.	.	8a	8cc#
.	.	8g#	8b
=116	=116	=116	=116
4AA	4e	4a	8a
.	.	.	8ee
8r	8r	8r	8e
8E	8d	8g#	8b
=117	=117	=117	=117
4AA	4c#	4a	8cc#
.	.	.	8ee
8r	8r	8r	8e
8E	8B	8d	8g#
=118	=118	=118	=118
4AA	4c#	4c#	8a
.	.	.	8ee
8r	8r	8r	8e
8E	8d	8g#	8b
=119	=119	=119	=119
4AA	4c#	4a	8cc#
.	.	.	8ee
8r	8r	8r	8e
8E	8B	8d	8g#
=120	=120	=120	=120
4AA	4c#	4c#	4a
4r	4r	8r	8r
.	.	8e	8b
=121	=121	=121	=121
2r	2r	4a	4cc#
.	.	8r	8r
.	.	8b	8dd
=122	=122	=122	=122
2r	2r	4cc#	4ee
.	.	8r	8r
.	.	8dd	8ff#
=123	=123	=123	=123
2r	2r	4ee	4gg
.	.	8r	8r
.	.	8ff#	8aa
=124	=124	=124	=124
2r	2r	4gg	4bb
.	.	4r	4r
=125	=125	=125	=125
4.r	4.r	4.r	4.r
8AA	8e	8gg	8ccc#
=126	=126	=126	=126
[2BB-	[2d	[2ff	[2ddd
=127	=127	=127	=127
2BB-_	2d_	2ff_	4ddd]
.	.	.	4bb-
=128	=128	=128	=128
2BB-_	2d_	2ff]	4ff
.	.	.	4dd
=129	=129	=129	=129
4BB-]	4d]	4dd	4b-
4B-	4b-	4b-	4b-
=130	=130	=130	=130
4F	4f	4f	4f
4D	4d	4d	4d
=131	=131	=131	=131
4BB-	4B-	4B-	4B-
4r	8r	8r	4r
.	8B-	8f	.
=132	=132	=132	=132
2r	8B-	8f	2r
.	8B-	8f	.
.	8B-	8f	.
.	8B-	8f	.
=133	=133	=133	=133
2r	8B-	8f	4.r
.	8B-	8f	.
.	8B-	8f	.
.	8B-	8f	16ff
.	.	.	16ee-
=134	=134	=134	=134
2r	8B-	8f	8dd
.	8B-	8f	16dd
.	.	.	16cc
.	8B-	8f	8b-
.	8B-	8f	8cc
=135	=135	=135	=135
2r	8B-	8f	16dd
.	.	.	16ee-
.	8B-	8f	16dd
.	.	.	16cc
.	8B-	8f	8b-
.	8B-	8f	16ff
.	.	.	16ee-
=136	=136	=136	=136
2r	8B-	8f	8dd
.	8B-	8f	16dd
.	.	.	16cc
.	8B-	8f	8b-
.	8B-	8f	8cc
=137	=137	=137	=137
4.r	8B-	8f	4dd
.	8B-	8f	.
.	8B-	8f	8b-
16F	8B-	8f	8r
16E-	.	.	.
=138	=138	=138	=138
8D	8B-	8f	2r
16D	8B-	8f	.
16C	.	.	.
8BB-	8B-	8f	.
8C	8B-	8f	.
=139	=139	=139	=139
16D	8B-	8f	2r
16E-	.	.	.
16D	8B-	8f	.
16C	.	.	.
8BB-	8B-	8f	.
16F	8B-	8f	.
16E-	.	.	.
=140	=140	=140	=140
8D	8B-	8f	2r
16D	8B-	8f	.
16C	.	.	.
8BB-	8B-	8f	.
16BB-	8B-	8f	.
16AA-	.	.	.
=141	=141	=141	=141
[2GG	8B	8f	8r
.	8B	8f	16b
.	.	.	16cc
.	8B	8f	8dd
.	8B	8f	16dd
.	.	.	16ee-
=142	=142	=142	=142
2GG]	8B	8f	8ff
.	8B	8f	16ff
.	.	.	16gg
.	8B	8f	8aa-
.	8d	8f	8b
=143	=143	=143	=143
4C	8c	8e-	4cc
.	8c	8g	.
8r	8c	8g	4r
16G	8c	8g	.
16F	.	.	.
=144	=144	=144	=144
8E-	8c	8g	2r
16E-	8c	8g	.
16D	.	.	.
8C	8c	8g	.
8D	8c	8g	.
=145	=145	=145	=145
16E-	8c	8g	2r
16F	.	.	.
16E-	8c	8g	.
16D	.	.	.
8C	8c	8g	.
16G	8c	8g	.
16F	.	.	.
=146	=146	=146	=146
8E-	8c	8g	2r
16E-	8c	8g	.
16D	.	.	.
8C	8c	8g	.
16C	8c	8g	.
16BB-	.	.	.
=147	=147	=147	=147
[2AA	8c#	8g	8r
.	8c#	8g	16cc#
.	.	.	16dd
.	8c#	8g	8ee
.	8c#	8g	16ee
.	.	.	16ff
=148	=148	=148	=148
2AA]	8c#	8g	8gg
.	8c#	8g	16gg
.	.	.	16aa
.	8c#	8g	8bb-
.	8e	8g	8cc#
=149	=149	=149	=149
4D	8d	8f	4dd
.	8d	8a	.
4r	8d	8a	8r
.	8d	8a	16aa
.	.	.	16gg
=150	=150	=150	=150
2r	8d	8a	8ff
.	8d	8a	16ff
.	.	.	16ee
.	8d	8a	8dd
.	8d	8a	8ee
=151	=151	=151	=151
2r	8d	8a	16ff
.	.	.	16gg
.	8d	8a	16ff
.	.	.	16ee
.	8d	8a	8dd
.	8d	8a	16aa
.	.	.	16gg
=152	=152	=152	=152
2r	8d	8a	8ff
.	8d	8a	16ff
.	.	.	16ee
.	8d	8a	8dd
.	8d	8a	8ee
=153	=153	=153	=153
4.r	8d	8a	4ff
.	8d	8a	.
.	8d	8a	8dd
8d	8f	8a	8bb-
=154	=154	=154	=154
8d	8f	8a	8bb-
8d	8f	8a	8bb-
8d	8f	8a	8bb-
8d	8f	8a	8bb-
=155	=155	=155	=155
4.e	4.e	8g	16bb-
.	.	.	16ccc
.	.	8a	16bb-
.	.	.	16aa
.	.	8b-	8gg
8e	8g	8b-	8ccc
=156	=156	=156	=156
8e	8g	8b-	8ccc
8e	8g	8b-	8ccc
8e	8g	8b-	8ccc
8e	8g	8b-	8ccc
=157	=157	=157	=157
4.f	4.f	8a	16ccc
.	.	.	16ddd
.	.	8b-	16ccc
.	.	.	16bb-
.	.	8cc	8aa
8f#	8a	8cc	8ddd
=158	=158	=158	=158
8f#	8a	8cc	8ddd
8f#	8a	8cc	8ddd
8f#	8a	8cc	8ddd
8f#	8a	8a	8ddd
=159	=159	=159	=159
4g	4b-	4d	16bb-
.	.	.	16ccc
.	.	.	16bb-
.	.	.	16aa
8r	8r	8r	8gg
8d	8f#	8a	8r
=160	=160	=160	=160
8d	8f#	8a	2r
8d	8f#	8a	.
8d	8f#	8a	.
8d	8f#	8a	.
=161	=161	=161	=161
16B-	16g	16b-	4.r
16c	16f#	16a	.
16B-	16g	16b-	.
16A	16a	16cc	.
8G	8b-	8dd	.
8r	8e	8g#	8b
=162	=162	=162	=162
2r	8e	8g#	8b
.	8e	8g#	8b
.	8e	8g#	8b
.	8e	8g#	8b
=163	=163	=163	=163
4.r	16c	16a	16cc
.	16d	16g#	16b
.	16c	16a	16cc
.	16B	16b	16dd
.	8A	8cc	8ee
8F	8c	8d#	8aa
=164	=164	=164	=164
8F	8c	8d#	8aa
8F	8c	8d#	8aa
8F	8c	8d#	8aa
8F	8A	8d#	8aa
=165	=165	=165	=165
4E	4B	4e	16gg#
.	.	.	16aa
.	.	.	16gg#
.	.	.	16ff#
4r	4r	8r	8ee
.	.	8e	8b
=166	=166	=166	=166
4.r	4.r	8e	8b
.	.	8e	8b
.	.	8e	8b
8E	8B	8r	8r
=167	=167	=167	=167
8E	8B	4.r	4.r
8E	8B	.	.
8E	8B	.	.
8r	8r	8e	8b
=168	=168	=168	=168
4.r	4.r	8e	8b
.	.	8e	8b
.	.	8e	8b
8E	8B	8r	8r
=169	=169	=169	=169
8E	8B	4.r	4.r
8E	8B	.	.
8E	8B	.	.
8r	8r	8c#	8g
=170	=170	=170	=170
4.r	4.r	8c#	8g
.	.	8c#	8g
.	.	8c#	8g
8E	8B	8r	8r
=171	=171	=171	=171
8E	8B	4.r	4.r
8E	8B	.	.
8E	8B	.	.
8r	8r	8c#	8g
=172	=172	=172	=172
4.r	4.r	8c#	8g
.	.	8c#	8g
.	.	8c#	8g
8E	8B	8c#	8g
=173	=173	=173	=173
8E	8B	8c#	8g
8E	8B	8c#	8g
8E	8B	8c#	8g
8E	8B	8c#	8g
=174	=174	=174	=174
8E	8B	8c#	8g
8E	8B	8c#	8g
8E	8B	8c#	8g
8E	8B	8c#	8g
=175	=175	=175	=175
8E	8A#	8c#	8f#
8E	8A#	8c#	16f#
.	.	.	16g#
8E	8A#	8c#	8a#
8E	8A#	8c#	16a#
.	.	.	16b
=176	=176	=176	=176
8E	8A#	8f# 8c#	8cc#
8E	8A#	8f# 8c#	16cc#
.	.	.	16dd
8E	8A#	8f# 8c#	8ee
8E	8f#	8f# 8c#	8a#
=177	=177	=177	=177
8D	8f#	8f# 8B	8b
8D	8f#	8f# 8B	16b
.	.	.	16cc#
8D	8f#	8B 8f#	8dd
8D	8f#	8f# 8B	16dd
.	.	.	16ee
=178	=178	=178	=178
8D	8B	8f# 8B	8ff#
8D	8B	8f# 8B	16gg#
.	.	.	16aa#
8D	8B	8f# 8B	8bb
8D	8B	8B 8f#	8dd
=179	=179	=179	=179
8E	8B	8g	8cc#
8E	8B	16g	16ee
.	.	16f#	16ff#
8E	8B	8e	8gg
8E	8B	8cc#	8ee
=180	=180	=180	=180
8F#	8B	8dd	8dd
8F#	8d	8b	8ff#
8F#	8f#	8cc#	8a#
8F#	8e	8a#	8cc#
=181	=181	=181	=181
8BB	8d	8b	8b
16BB	16B	16B	16B
16C#	16c#	16c#	16c#
8D	8d	8d	8d
16C#	16c#	16c#	16c#
16D	16d	16d	16d
=182	=182	=182	=182
8E	8e	8e	8e
16D	16d	16d	16d
16E	16e	16e	16e
8F#	8f#	8f#	8f#
16E	16e	16e	16e
16F#	16f#	16f#	16f#
=183	=183	=183	=183
8G	8g	8g	8g
8r	8r	8r	8r
8E	8e	8ee	8gg
8r	8r	8r	8r
=184	=184	=184	=184
8F#	8f#	8dd	8ff#
8r	8r	8r	8r
8F#	8f#	8e	8a#
8r	8r	8r	8r
=185	=185	=185	=185
8B	8f#	4d	4b
8B	8f#	.	.
8B	8f#	4r	4r
8B	8f#	.	.
=186	=186	=186	=186
8B	8f#	2r	2r
8B	8f#	.	.
8B	8f#	.	.
8B	8f#	.	.
=187	=187	=187	=187
8B	8f#	2r	2r
8B	8f#	.	.
8B	8f#	.	.
8B	8f#	.	.
=188	=188	=188	=188
8B	8f#	2r	2r
8B	8f#	.	.
8B	8f#	.	.
8B	8f#	.	.
=189	=189	=189	=189
8B	8f#	8g	8dd
8B	8f#	8g	8dd
8B	8f#	8g	8dd
8B	8f#	8g	8dd
=190	=190	=190	=190
8B	8f#	8g	8dd
8B	8f#	8g	8dd
8B	8f#	8g	8dd
8B	8f#	8g	8dd
=191	=191	=191	=191
8A	8ee	8c#	8gg
8A	8ee	8c#	8gg
8A	8ee	8c#	8gg
8A	8ee	8c#	8gg
=192	=192	=192	=192
8AA	8ee	8e 8cc#	8gg
8AA	8cc#	8cc# 8e	8gg
8AA	8a	8e 8cc#	8gg
8AA	8e	16aa	8ccc#
.	.	16gg	.
=193	=193	=193	=193
4DD	4f#	16ff#	4ddd
.	.	16gg	.
.	.	16ff#	.
.	.	16ee	.
8r	8r	16dd	8r
.	.	16bb	.
8A	8a 8e	16aa	8ccc#
.	.	16gg	.
=194	=194	=194	=194
4d	4f# 4a	16ff#	4ddd
.	.	16gg	.
.	.	16ff#	.
.	.	16ee	.
8r	8r	16dd	8r
.	.	16bb	.
8A	8e 8a	16aa	8ccc#
.	.	16gg	.
=195	=195	=195	=195
4d	4a 4f#	16ff#	4ddd
.	.	16gg	.
.	.	16ff#	.
.	.	16ee	.
8r	8r	16dd	8r
.	.	16bb	.
8A	8e 8a	16aa	8ccc#
.	.	16gg	.
=196	=196	=196	=196
8d	8f# 8a	16ff#	8ddd
.	.	16bb	.
8A	8e 8a	16aa	8ccc#
.	.	16gg	.
8d	8a 8f#	16ff#	8ddd
.	.	16bb	.
8A	8e 8a	16aa	8ccc#
.	.	16gg	.
=197	=197	=197	=197
4d	4a 4f#	16ff#	4ddd
.	.	16gg	.
.	.	16ff#	.
.	.	16ee	.
8r	8r	16dd	8r
.	.	16gg	.
8F#	8cc# 8f#	16ff#	8aa#
.	.	16ee	.
=198	=198	=198	=198
8B	8dd 8f#	16dd	8bb
.	.	16gg	.
8F#	8cc# 8f#	16ff#	8aa#
.	.	16ee	.
8B	8dd 8f#	16dd	8bb
.	.	16gg	.
8F#	8cc# 8f#	16ff#	8aa#
.	.	16ee	.
=199	=199	=199	=199
4B	4dd 4f#	16dd	4bb
.	.	16ee	.
.	.	16dd	.
.	.	16cc#	.
8r	8r	16b	8r
.	.	16ee	.
8D	8a	16dd	8ff#
.	.	16cc	.
=200	=200	=200	=200
8G	8d 8b	16b	8gg
.	.	16ee	.
8D	8a 8d	16dd	8ff#
.	.	16cc	.
8G	8b 8d	16b	8gg
.	.	16ee	.
8D	8a 8d	16dd	8ff#
.	.	16cc	.
=201	=201	=201	=201
4G	4b 4d	16b	4gg
.	.	16cc	.
.	.	16b	.
.	.	16a	.
8r	8r	16g	8r
.	.	16cc	.
8BB	8f#	16b	8dd#
.	.	16a	.
=202	=202	=202	=202
8E	8g 8B	16g	8ee
.	.	16cc	.
8BB	8f# 8B	16b	8dd#
.	.	16a	.
8E	8g 8B	16g	8ee
.	.	16cc	.
8BB	8f# 8B	16b	8dd#
.	.	16a	.
=203	=203	=203	=203
8E	4g 4B	8g	8ee
8E	.	8b	16ee
.	.	.	16ff#
8E	8r	8b	8gg
8E	16e	8b	16gg
.	16f#	.	16aa
=204	=204	=204	=204
8E	4.g	8b	8bb
8E	.	8b	8gg
8G	.	8b	8ee
8G#	8g#	8b	8dd
=205	=205	=205	=205
8A	8a	4.e	8cc#
8A	16c#	.	16a
.	16d	.	16b
8A	8e	.	8cc#
8A	8r	16a	16cc#
.	.	16b	16dd
=206	=206	=206	=206
8A	4.g	8cc#	8ee
8A	.	16cc#	16ee
.	.	16dd	16ff#
8A	.	8ee	8gg
8A	8e	8g	8cc#
=207	=207	=207	=207
8AA	4f#	8f#	8dd
8A	.	16dd	16ff#
.	.	16ee	16gg
8A	4r	16ff#	8aa
.	.	16dd	.
8A	.	16b	16bb
.	.	16a	16ccc#
=208	=208	=208	=208
8A	2b	4.g#	8ddd
8A	.	.	16ddd
.	.	.	16ccc#
8A	.	.	8ddd
8A	.	8dd	8gg#
=209	=209	=209	=209
8AA	8a	8cc#	8aa
8A	16c#	16ee	16aa
.	16B	16dd	16bb
8A	8A	8cc#	8ccc#
8A	16e	16gg	16ccc#
.	16d	16ff#	16ddd
=210	=210	=210	=210
8A	8c#	8ee	8eee
8A	16g	16ee	16eee
.	16f#	16dd	16fff#
8A	8e	8cc#	8ggg
8G	8A	8ee	8ccc#
=211	=211	=211	=211
4F#	4A	4dd	8ddd
.	.	.	8ccc#
4r	8r	8r	8ddd
.	8ee	8gg	8ccc#
=212	=212	=212	=212
2r	4ff#	4aa	8ddd
.	.	.	8ccc#
.	8r	8r	8ddd
.	8b	8dd	8gg#
=213	=213	=213	=213
2r	4cc#	4ee	8aa
.	.	.	8gg#
.	8r	8r	8aa
.	8a#	8cc#	8ff#
=214	=214	=214	=214
2r	4b	4dd	8gg
.	.	.	8ff#
.	8r	8r	8gg
.	8b	8dd	8ee#
=215	=215	=215	=215
2r	8a#	8cc#	8ff#
.	8b	8dd	8ee#
.	8a#	8cc#	8ff#
.	8a	8cc	8dd#
=216	=216	=216	=216
2r	8g#	8b	8ee
.	8a	8cc	8dd#
.	8g#	8b	8ee
.	8g	8b-	8cc#
=217	=217	=217	=217
2r	8f#	8a	8dd
.	8g	8b-	8cc#
.	8f#	8a	8dd
.	8c#	8a	8ee
=218	=218	=218	=218
4.r	8d	4.a	8ff#
.	8c#	.	8ee
.	8d	.	8ff#
8B	8d	8dd	8gg
=219	=219	=219	=219
8F#	2d	[2dd	8aa
8E#	.	.	8gg#
8F#	.	.	8aa
8F#	.	.	8aa#
=220	=220	=220	=220
4G	4.B	4.dd]	8bb
.	.	.	8gg
8r	.	.	8ee
8G#	8e	8b	8dd
=221	=221	=221	=221
8A	8e	4a	4cc#
8A	8e	.	.
8A	8e	4r	4r
8A	8e	.	.
=222	=222	=222	=222
8A	8e	2r	2r
8A	8e	.	.
8A	8e	.	.
8A	8e	.	.
=223	=223	=223	=223
8A	8e	2r	2r
8A	8e	.	.
8A	8e	.	.
8A	8e	.	.
=224	=224	=224	=224
8A	8e	2r	2r
8A	8e	.	.
8A	8e	.	.
8A	8e	.	.
=225	=225	=225	=225
8A	8e	8f#	8cc
8A	8e	8f#	8cc
8A	8e	8f#	8cc
8A	8e	8f#	8cc
=226	=226	=226	=226
8A	8e	8f#	8cc
8A	8e	8f#	8cc
8A	8e	8f#	8cc
8A	8e	8f#	8cc
=227	=227	=227	=227
8A	8d#	8B 8f#	8b
8A	8d#	8f# 8B	16b
.	.	.	16cc#
8A	8d#	8f# 8B	8dd#
8A	8d#	8f# 8B	16dd#
.	.	.	16ee
=228	=228	=228	=228
8A	8d#	8B 8f#	8ff#
8A	8d#	8f# 8B	16ff#
.	.	.	16gg
8A	8d#	8B 8f#	8aa
8A	8f#	8f# 8B	8dd#
=229	=229	=229	=229
8G	8B	8B 8e	8ee
8G	8b	8B 8e	16ee
.	.	.	16ff#
8G	8b	8B 8e	8gg
8G	8b	8B 8e	16gg
.	.	.	16aa
=230	=230	=230	=230
8G	8e	8B 8e	8bb
8G	8e	8B 8e	16bb
.	.	.	16aa
8G	8e	8B 8e	16gg
.	.	.	16ff#
8G	8e	8B 8e	16ee
.	.	.	16dd
=231	=231	=231	=231
8G	8a	8e 8A	8cc#
8G	8c#	8A 8e	16a
.	.	.	16b
8G	8c#	8e 8A	8cc#
8G	8c#	8A 8e	16cc#
.	.	.	16dd
=232	=232	=232	=232
8G	8c#	8A 8e	8ee
8G	8c#	8e 8A	16ee
.	.	.	16ff#
8G	8c#	8A 8e	8gg
8G	8e	8A 8e	8cc#
=233	=233	=233	=233
8F#	8A	8A 8d	8dd
8F#	8a	8d 8A	16dd
.	.	.	16ee
8F#	8a	8A 8d	8ff#
8F#	8a	8A 8d	16ff#
.	.	.	16gg
=234	=234	=234	=234
8F#	8d	8A 8d	8aa
8F#	8d	8d 8A	16aa
.	.	.	16gg
8F#	8d	8A 8d	16ff#
.	.	.	16ee
8F#	8d	8A 8d	16dd
.	.	.	16cc#
=235	=235	=235	=235
4G	4d	4B 4d	8b
.	.	.	16ddd
.	.	.	16ccc#
4r	4r	4r	16bb
.	.	.	16aa
.	.	.	16gg
.	.	.	16ff#
=236	=236	=236	=236
4G	4g	4b	8ee
.	.	.	16bb
.	.	.	16aa
4r	4r	4r	16gg
.	.	.	16ff#
.	.	.	16ee
.	.	.	16dd
=237	=237	=237	=237
2G	4.cc#	2a 2e	16cc#
.	.	.	16dd
.	.	.	16ee
.	.	.	16ff#
.	.	.	16gg
.	.	.	16aa
.	8ee	.	16bb
.	.	.	16ccc#
=238	=238	=238	=238
8F#	8dd	8f# 8a	8ddd
8E	8cc#	8g	8eee
8D	8dd	8f#	8fff#
8F#	8dd	8a	8ddd
=239	=239	=239	=239
2G	4dd	4b	8bb
.	.	.	8ddd
.	4r	8gg	8bb
.	.	8ee	8gg
=240	=240	=240	=240
4A	4r	8dd	8ff#
.	.	8ff#	8aa
4AA	4g	8ee	8cc#
.	.	8cc#	8ee
=241	=241	=241	=241
4D	4f#	4dd	8dd
.	.	.	16d
.	.	.	16e
4r	4r	8r	8f#
.	.	16d	16f#
.	.	16e	16g
=242	=242	=242	=242
4.r	2r	8f#	8a
.	.	8f#	8a
.	.	8e	8g
8D	.	8d	8f#
=243	=243	=243	=243
4A	2r	4c#	8e
.	.	.	16e
.	.	.	16f#
4r	.	8r	8g
.	.	16e	16g
.	.	16f#	16a
=244	=244	=244	=244
4.r	2r	8g	8b
.	.	8g	8b
.	.	8f#	8a
8AA	.	8e	8g
=245	=245	=245	=245
4D	2r	4d	8f#
.	.	.	16dd
.	.	.	16ee
4r	.	8r	8ff#
.	.	16dd	16ff#
.	.	16ee	16gg
=246	=246	=246	=246
2r	2r	8ff#	8aa
.	.	8ff#	8aa
.	.	8ee	8gg
.	.	8dd	8ff#
=247	=247	=247	=247
4.r	2r	8a	8ee
.	.	8a	8ee
.	.	8a	8ee
16AA	.	8a	8ee
16BB	.	.	.
=248	=248	=248	=248
8C#	2r	8a	8ee
16C#	.	8a	8ee
16D	.	.	.
8E	.	8a	8ee
16E	.	8a	8ee
16F#	.	.	.
=249	=249	=249	=249
4G	2r	8a	8ee
.	.	8a	8ee
8E	.	8a	8ee
16C#	.	8a	8ee
16D	.	.	.
=250	=250	=250	=250
8E	2r	8a	8ee
16E	.	8a	8ee
16F#	.	.	.
8G	.	8a	8ee
16G	.	8a	8ee
16A	.	.	.
=251	=251	=251	=251
2B	2r	8g#	8ee
.	.	8g#	8ee
.	.	8g#	8ee
.	.	8g#	8ee
=252	=252	=252	=252
2c#	8a	8g	8ee
.	8a	8g	8ee
.	8a	8g	8ee
.	8a	8g	8ee
=253	=253	=253	=253
8d	8a	8f#	8dd
8d	8r	8r	8r
8B	8dd	8dd	8ff#
8B	8r	8r	8r
=254	=254	=254	=254
8G	8b	8ee	8gg
8G	8r	8r	8r
8A	8g	8cc#	8ee
8A	8r	8r	8r
=255	=255	=255	=255
4D	8f#	4dd	4dd
.	16D	.	.
.	16E	.	.
8r	8F#	4r	4r
16D	16F#	.	.
16E	16G	.	.
=256	=256	=256	=256
8F#	8A	2r	2r
8F#	8A	.	.
8E	8G	.	.
8D	8F#	.	.
=257	=257	=257	=257
4AA	8E	2r	2r
.	16E	.	.
.	16F#	.	.
8r	8G	.	.
16E	16G	.	.
16F#	16A	.	.
=258	=258	=258	=258
8G	8B	2r	2r
8G	8B	.	.
8F#	8A	.	.
8E	8G	.	.
=259	=259	=259	=259
4D	4F#	8r	2r
.	.	16d	.
.	.	16e	.
4r	8r	8f#	.
.	16d	16f#	.
.	16e	16g	.
=260	=260	=260	=260
2r	8f#	8a	2r
.	8f#	8a	.
.	8e	8g	.
.	8d	8f#	.
=261	=261	=261	=261
2r	8A	8e	4.r
.	8A	8e	.
.	8A	8e	.
.	8A	8e	16a
.	.	.	16b
=262	=262	=262	=262
2r	8A	8e	8cc#
.	8A	8e	16cc#
.	.	.	16dd
.	8A	8e	8ee
.	8A	8e	16ee
.	.	.	16ff#
=263	=263	=263	=263
2r	8A	8e	4gg
.	8A	8e	.
.	8A	8e	8ee
.	8A	8e	16cc#
.	.	.	16dd
=264	=264	=264	=264
2r	8A	8e	8ee
.	8A	8e	16ee
.	.	.	16ff#
.	8A	8e	8gg
.	8A	8e	16gg
.	.	.	16aa
=265	=265	=265	=265
2r	8G#	8e	2bb
.	8G#	8e	.
.	8G#	8e	.
.	8G#	8e	.
=266	=266	=266	=266
4.AA	8G	8ee	2ccc#
.	8G	8ee	.
.	8G	8ee	.
8G	8a	8ee	.
=267	=267	=267	=267
8F#	8a	8dd	16ddd
.	.	.	16ccc#
8F#	8a	8dd	16bb
.	.	.	16aa
8F#	8a	8dd	16gg
.	.	.	16ff#
8F#	8a	8dd	16ee
.	.	.	16dd
=268	=268	=268	=268
8G	8a	8cc#	16ee
.	.	.	16dd
8G	8a	16cc#	16ee
.	.	16dd	16ff#
8G	8a	16ee	16gg
.	.	16ff#	16aa
8G	8a	16gg	16bb
.	.	16ee	16ccc#
=269	=269	=269	=269
8F#	8a	8dd	16ddd
.	.	.	16ccc#
8F#	8a	8dd	16bb
.	.	.	16aa
8F#	8a	8dd	16gg
.	.	.	16ff#
8F#	8a	8dd	16ee
.	.	.	16dd
=270	=270	=270	=270
8G	8a	16cc#	16ee
.	.	16b	16dd
8G	8a	16cc#	16ee
.	.	16dd	16ff#
8G	8a	16ee	16gg
.	.	16ff#	16aa
8G	8a	16gg	16bb
.	.	16ee	16ccc#
=271	=271	=271	=271
8F#	8a	8dd	16ddd
.	.	.	16ccc#
8F#	8a	8dd	16bb
.	.	.	16aa
8F#	8a	8dd	16gg
.	.	.	16ff#
8F#	8a	8dd	16ee
.	.	.	16dd
=272	=272	=272	=272
8G	8a	16cc#	16ee
.	.	16b	16dd
8G	8a	16cc#	16ee
.	.	16dd	16ff#
8G	8a	16ee	16gg
.	.	16ff#	16aa
8G	8a	16gg	16bb
.	.	16ee	16ccc#
=273	=273	=273	=273
8F#	8a	8dd	8ddd
8r	8r	8r	8r
8C#	8a	8aa	8eee
8r	8r	8r	8r
=274	=274	=274	=274
8D	8dd	8aa	8fff#
8r	8r	8r	8r
8BB	8b	8ddd	8ggg
8r	8r	8r	8r
=275	=275	=275	=275
4FF#	4a	4ddd	4aaa
4r	4r	4r	4r
=276	=276	=276	=276
2r	2r	2r	2r
=277	=277	=277	=277
[2G	[2d	16b	16bb
.	.	16cc#	16ccc#
.	.	16b	16bb
.	.	16a#	16aa#
.	.	16b	16bb
.	.	16cc#	16ccc#
.	.	16b	16bb
.	.	16a#	16aa#
=278	=278	=278	=278
2G]	2d_	8b	8bb
.	.	8cc#	8ccc#
.	.	8dd	8ddd
.	.	8gg	8bb
=279	=279	=279	=279
2A	2d]	4ff#	8aa
.	.	.	8ddd
.	.	8dd	8ff#
.	.	8ff#	8aa
=280	=280	=280	=280
2AA	2a	8ff#	8aa
.	.	8ee	8gg
.	.	8dd	8ff#
.	.	8cc#	8ee
=281	=281	=281	=281
4D	4a	4dd	8dd
.	.	.	8aa
8r	8r	8r	8a
8A	8g	8cc#	8ee
=282	=282	=282	=282
4D	4f#	4dd	8ff#
.	.	.	8aa
8r	8r	8r	8a
8A	8e	8g	8cc#
=283	=283	=283	=283
4D	4f#	4f#	8dd
.	.	.	8aa
8r	8r	8r	8a
8A	8g	8cc#	8ee
=284	=284	=284	=284
4D	4f#	4dd	8ff#
.	.	.	8aa
8r	8r	8r	8a
8A	8e	8g	8cc#
=285	=285	=285	=285
4D	4f#	4f#	4dd
8r	8r	8r	8r
8A	8g	8cc#	8ee
=286	=286	=286	=286
4D	4f#	4dd	4ff#
8r	8r	8r	8r
8A	8e	8gg	8ccc#
=287	=287	=287	=287
4D	4f#	4ff#	4ddd
8r	8r	8r	8r
8AA	8e	8gg	8ccc#
=288	=288	=288	=288
8DD	8f#	8ff#	8ddd
8AA	8e	8gg	8ccc#
8DD	8f#	8ff#	8ddd
8AA	8e	8gg	8ccc#
=289	=289	=289	=289
4DD	4f#	4ff#	4ddd
4r	4r	4r	4r
=290	=290	=290	=290
4DD	4d 4D 4A	4ff# 4d 4a	4ff# 4d 4a
4r	4r	4r	4r
=291	=291	=291	=291
4DD	4d 4D 4A	4ff# 4d 4a	4d
4r	4r	4r	4r
==	==	==	==
*-	*-	*-	*-
!!!RWG1: This file contains only pitch and duration data.
!!!RWG2: Transposing instruments are not transposed.
!!!RWG3: Spines may have incompatible meters.
!!!RWG4: Durations of rests and tied notes may be interpreted.
!!!RWG: Key is interpreted using the Humdrum key tool.
!!!GTL: 6 Quartetti ("Erdödy")
!!!AFT: stage1
!!!END: 1997/04/15
!!!KEY: 3699255122
!!!EMD: Converted from MuseData to Humdrum Dec 16, 2000, by Andreas Kornstaedt using muse2kern.
!!!EMD: Manual editing by Craig Sapp, Nov 2001
